!!!COM: Corelli, Arcangelo
!!!OPR: Sonata da chiesa
!!!OPS: 3
!!!ONM: 6
!!!OMV: 1
!!!OMD: Vivace
**kern	**cdata-harm	**fb	**kern	**kern
*part3	*above	*part3	*part2	*part1
*staff3	*	*	*staff2	*staff1
*I"Violone & Organo	*	*	*I"Violino II	*I"Violino I
*clefF4	*	*	*clefG2	*clefG2
*k[]	*	*	*k[]	*k[]
*M4/4	*	*	*M4/4	*M4/4
*met(c)	*	*	*met(c)	*met(c)
*MM152	*	*	*MM152	*MM152
=1	=1	=1	=1	=1
2G	G.I{	.	2r	8bL
.	.	.	.	8dd
.	.	.	.	8b
.	.	.	.	8gJ
2F#X	V6	6	8ff#XL	2dd
.	.	.	8aa	.
.	.	.	8ff#	.
.	.	.	8ddJ	.
=2	=2	=2	=2	=2
2E	vi7	7	8ggL	8eeL
.	.	.	8bb	8gg
.	viio6/V	#6\	8gg	8ee
.	.	.	8eeJ	8cc#XJ
2D	V	#	4a	8ff#XL
.	.	.	.	8aa
.	.	.	4r	8ff#
.	.	.	.	8ddJ
=3	=3	=3	=3	=3
4.BB	I6	6	8ddL	8ggL
.	.	.	8gg	8bb
.	.	.	8dd	8gg
8BB	.	.	8bJ	8ddJ
4.C	IV	5	8gL	8eeL
.	.	.	8ee	8gg
.	ii6	6	8aa	8cccni
8C	.	.	8ccJ	8eeJ
=4	=4	=4	=4	=4
4D	V7	7 #	4cc	8ff#XL
.	.	.	.	8ddJ
8EL	vi	5	8bL	4gg
8CJ	ii65	6 5	8aJ	.
4D	V(64)	6 4	4b	4.gg
4DD	V	#	4a	.
.	.	.	.	8ff#
=5	=5	=5	=5	=5
2GG	I|PAC}	.	2g	2gg
2G	{	.	2r	8bbL
.	.	.	.	8ddd
.	.	.	.	8bb
.	.	.	.	8ggJ
=6	=6	=6	=6	=6
2F#X	V6	6	8ddL	4aa
.	.	.	8ff#X	.
.	.	.	8aa	4r
.	.	.	8ddJ	.
2E	vi	5	4gg	8eeL
.	.	.	.	8gg
.	.	#6\	4r	8b
.	.	.	.	8cc#XJ
=7	=7	=7	=7	=7
2D	V	#	8ff#XL	4.dd
.	.	.	8aa	.
.	.	.	8dd	.
.	.	.	8ff#J	8a
4GG	V.IV	.	8ggL	8bL
.	.	.	8b	8dd
[4G	.	.	8dd	8gg
.	.	.	8ggJ	8bJ
=8	=8	=8	=8	=8
4G]	V2	#4| 2	4ee	8cc#XL
.	.	.	.	8aa
8F#XL	I6	6	2dd	8dd
8GJ	IV	.	.	8bbJ
4A	V(64)	#6\ 4	.	4ff#X
4AA	V	5 #	4cc#X	4ee
=9	=9	=9	=9	=9
8DL	I|PAC}	#	4dd	4dd
8F#X	{	.	.	.
8D	.	.	4r	4r
8CJ	.	.	.	.
4BB	I.I6	6	8ddL	8ggL
.	.	.	8gg	8bb
4r	.	.	8dd	8gg
.	.	.	8bJ	8ddJ
=10	=10	=10	=10	=10
8CL	IV	.	4g	4ee
8E	.	.	.	.
8C	.	.	4r	4r
8BBJ	.	.	.	.
4AA	ii	n	8eeL	8aaL
.	.	.	8aa	8ccc
4r	.	.	8ee	8aa
.	.	.	8ccJ	8eeJ
=11	=11	=11	=11	=11
8DL	V	#	4a	4ff#X
8F#X	.	.	.	.
8D	.	.	4r	4r
8CJ	.	.	.	.
4.BB	I6	6	8ddL	8ggL
.	.	.	8gg	8bb
.	.	.	8dd	8gg
8BB	.	.	8bJ	8ddJ
=12	=12	=12	=12	=12
4.C	IV	5	8gL	8eeL
.	.	.	8ee	8gg
.	ii6	6	8aa	8ccc
8C	.	.	8ccJ	8eeJ
4D	V7	7 #	4cc	8ff#XL
.	.	.	.	8ddJ
8EL	vi	5	8bL	4gg
8CJ	ii65	6 5	8aJ	.
=13	=13	=13	=13	=13
4D	V(64)	6 4	4b	4.gg
4DD	V	5 #	4a	.
.	.	.	.	8ff#X
8GL	I|PAC}	.	2g	2gg
8B	{	.	.	.
8G	.	.	.	.
8F#XJ	.	.	.	.
=14	=14	=14	=14	=14
8EL	vi	.	2r	8ggL
8G	.	.	.	8bb
8E	.	.	.	8gg
8BBJ	.	.	.	8ddJ
4.C	IV	5	8ggL	8eeL
.	.	.	8ee	8gg
.	ii6	6	8aa	8ccc
8C	.	.	8ccJ	8eeJ
=15	=15	=15	=15	=15
4D	V7	7 #	4cc	8ff#XL
.	.	.	.	8ddJ
8EL	vi	5	8bL	4gg
8CJ	ii65	6 5	8aJ	.
4D	V(64)	6 4	4b	4.gg
4DD	V	5 #	4a	.
.	.	.	.	8ff#
=16	=16	=16	=16	=16
1GG	I|PAC}	.	1g	1gg
=17:|!|:	=17:|!|:	=17:|!|:	=17:|!|:	=17:|!|:
4.G	{	.	4.b	4.dd
8G	.	.	8b	8dd
4F#X	vi.#viio6	#6\	4a	4dd#X
4E	i	.	4g	4ee
=18	=18	=18	=18	=18
2D#X	V6	6	2b	4.ff#X
.	.	.	.	(16eeLL
.	.	.	.	16ff#JJ)
4.E	i	.	4.b	8ggL
.	.	.	.	8eeJ
.	.	.	.	[4bb
8Dn	v6	6 #	8b	.
=19	=19	=19	=19	=19
4.C	iv6(2)	7	4.ee	8bbL]
.	.	.	.	8eeJ
.	iv6	6	.	4.aa
8AA	iio6	#6\	8ff#X	.
4BB	V7	7 #	8dd#XL	.
.	.	.	8bJ	8bbL
8CL	VI	5	4ee	8gg
8AAJ	ii%65	#6\ 5	.	8ff#XJ
=20	=20	=20	=20	=20
2BB	V(64)	6 4	4.ee	4gg
.	V	5 #	.	4ff#X
.	.	.	8dd#X	.
4.E	i|PAC}	.	4.ee	8eeL
.	.	.	.	8ff#J
.	{	.	.	4gg
8D	V.IV64	.	8bb	.
=21	=21	=21	=21	=21
4C#X	V65	6 5	4.aa	8r
.	.	.	.	8ee
4AA	V	#	.	4aa
.	.	.	8gg	.
4.D	I(9)	9 #	8ff#XL	8r
.	.	.	8ggJ	8aL
.	I	8	[4aa	8dd
8F#X	V65/IV	6	.	8ccJ
=22	=22	=22	=22	=22
8GL	IV(9)	9	4aa]	8bL
8A	V	.	.	8cc#X
8B	IV6	6	2gg	8dd
8GJ	ii6	.	.	8eeJ
4A	V7	7 #	.	8cc#
.	.	.	.	4a
8r	.	.	4ff#X	.
8F#X	.	6	.	8aa
=23	=23	=23	=23	=23
8GL	IV	.	8bL	(8bbL
8A	V	#	8cc#XJ	8aa)
8B	IV6	6	4dd	(8gg
8F#XJ	I6	6	.	8ff#XJ)
8GL	ii65	6 5	4.dd	2ee
8E	ii7	.	.	.
8A	V(4)	5 4	.	.
8AAJ	V	#	8cc#	.
=24	=24	=24	=24	=24
8DL	I|PAC}	#	2dd	2dd
8E	{	.	.	.
8D	.	.	.	.
8CJ	.	.	.	.
2BB	I.I6	6	2r	8ggL
.	.	.	.	8bb
.	.	.	.	8gg
.	.	.	.	8ddJ
=25	=25	=25	=25	=25
2C	IV	5	8ggL	8eeL
.	.	.	8g	8eJ
.	.	.	8cc	4r
.	.	.	8eeJ	.
2C#X	V6/V	6	8aL	8eeL
.	.	.	8AJ	8aa
.	.	.	4r	8ee
.	.	.	.	8cc#XJ
=26	=26	=26	=26	=26
2D	V	5	8aaL	8ff#XL
.	.	.	8a	8f#XJ
.	.	.	8dd	4r
.	.	.	8ff#XJ	.
2D#X	V6/vi	6	8bL	8ff#L
.	.	.	8BJ	8bb
.	.	.	4r	8ff#
.	.	.	.	8dd#XJ
=27	=27	=27	=27	=27
2E	vi	5	8ggL	8ggL
.	.	.	8bb	8gJ
.	.	.	8gg	4r
.	.	.	8bbJ	.
2E	IV6	6	8eeL	8ggL
.	.	.	8eJ	8ccc
.	.	.	4r	8gg
.	.	.	.	8eeJ
=28	=28	=28	=28	=28
2F#X	viio	5	8aaL	8aaL
.	.	.	8ccc	8aJ
.	.	.	8aa	4r
.	.	.	8ff#XJ	.
2F#	V6	6	8ddL	8aaL
.	.	.	8dJ	8ddd
.	.	.	4r	8aa
.	.	.	.	8ff#XJ
=29	=29	=29	=29	=29
2G	I|IAC}	.	8ggL	4bb
.	.	.	8bb	.
.	{	.	8gg	4r
.	.	.	8ddJ	.
4GG	.	.	8bL	8ggL
.	.	.	8gJ	8bb
4BB	I6	6	[4dd	8gg
.	.	.	.	8ddJ
=30	=30	=30	=30	=30
4.C	IV(9)	9	4dd]	8eeL
.	.	.	.	8gg
.	IV	8	2cc	8ccc
8C	ii6	6	.	8eeJ
4D	V7	7 #	.	8ff#XL
.	.	.	.	8ddJ
8EL	vi	5	(8bL	4gg
8CJ	ii65	6 5	8aJ)	.
=31	=31	=31	=31	=31
4D	V(64)	6 4	4b	4.gg
4DD	V	5 #	4a	.
.	.	.	.	8ff#X
4.GG	I	.	8ggL	4gg
.	.	.	8bb	.
.	.	.	8gg	[4dd
8BB	I6	6	8ddJ	.
=32	=32	=32	=32	=32
4.C	IV(9)	9	8eeL	4dd]
.	.	.	8gg	.
.	IV	8	8ccc	2cc
8C	ii6	6	8eeJ	.
4D	V7	7 #	8ff#XL	.
.	.	.	8ddJ	.
8EL	vi	5	4gg	8bL
8CJ	ii65	6 5	.	8aJ
=33	=33	=33	=33	=33
4D	V(64)	6 4	4.gg	4b
4DD	V	7 #	.	4a
.	.	.	8ff#X	.
2GG	I|PAC}	.	2gg	2g
=:|!	=:|!	=:|!	=:|!	=:|!
*-	*-	*-	*-	*-
!!!system-decoration: [{s1,s2},s3]
!!!YEM: CC BY-NC-SA 4.0; CCARH; DCML
!!!RDF**kern: i = editorial accidental